!! 00008] TT[TB
!! Eigene Aufnahme
!!!OTL: Dui niao
!!!ARE: Asia, China,Zhejiang, Leqing
!! Ethnic Group: Han
!! III, 645
!!!SCT: C0176
!!!YEM: Copyright 1995, estate of Helmut Schaffrath.
**kern
*ICvox
*Ivox
*M2/4
*k[]
*C:
{8r
16dd
16dd
8dd
8dd
=1
8ee
8ee
[4dd
=2
2dd]
=3
2a}
=4
{8r
16cc
16cc
8cc
8cc
=5
8gg
4.a
=6
8cc
4.g}
=7
{8g
4g
8a
=8
8cc
8cc
8dd
16ee
16gg
=9
4a
4r}
=10
{8r
16a
16a
8g
8a
=11
8a
8a
8g
8a
=12
8gg
4.a
=13
4a
4g}
=14
{8r
16dd
16dd
8dd
8dd
=15
8ee
8ee
[4dd
=16
2dd]
=17
2a}
=18
{8gg
8a
8cc
8cc
=19
8gg
4.a
=20
8cc
4.g}
=21
{8g
4g
8a
=22
8cc
8cc
8dd
8gg
=23
4a
8r}
{16ee
16gg
=24
8a
8cc
8cc
8cc
=25
8dd
8dd
8a
8cc
=26
8gg
4.a
=27
8a
4.g}
==
!!!AGN: Shange. Melodiegeruest aehnlich wie meng jiangnÅ aber keine
!!    Audio-Affinitaeten. Dui niao
!! Frage - Antwort nicht ueber Blumen, sondern ueber Voegel. VARIANTE
!!    In der gesungenen Version ist die letzte Phrase kuerzer.
!!    mongolischer Einfluss. Saengerin: Huang Bai (?)
!!    Einige Verzierungen und Glissandi.
!!!ONB: ESAC (Essen Associative Code) Database: CHINA_053
!!!AMT: simple duple
!!!AIN: vox
!!!EED: Helmut Schaffrath
!!!EEV: 1.0
*-
!!!ONB: Tied note syntax fixed by Craig Sapp, 2004/05/03/
